!!!OTL: RITI RITI RESSLAE
!!!ARE: Europa, Mitteleuropa, Deutschland; France, Elsass
!!!SCT: E1818
!!!YEM: Copyright 1995, estate of Helmut Schaffrath.
**kern
*ICvox
*Ivox
*M2/4
*k[b-]
*F:
=1
{8cc
8dd
8cc
8dd
=2
4cc
4a}
=3
{8cc
8dd
8cc
8dd
=4
4cc
4a}
=5
{4cc
8cc
8dd
=6
8cc
8cc
4a}
=7
{4cc
8cc
8dd
=8
8cc
8cc
4a}
=9
{8f
8f
4c
=10
4f
4f}
=11
{8f
8f
4c
=12
4f
4f}
=13
{16cc
16cc
16b-
16b-
16a
16a
16g
16g
=14
4f
4r}
==
!!!AGN: Kinder -, Wiegen -, Schlaf - Lied
!!!ONB: ESAC (Essen Associative Code) Database: ERK3
!!!AMT: simple duple
!!!AIN: vox
!!!EED: Helmut Schaffrath
!!!EEV: 1.0
*-
